X:1
T:Title
%%score { ( 1 3 ) | 2 }
L:1/8
M:4/4
K:G
V:1 treble nm="Grand Piano"
V:3 treble 
V:2 bass 
V:1
 z4 z2[Q:1/4=100] D>D | G2 G4 G>A | B2 B4 B>c | d3 d c2 B2 |[M:3/4] [FA]6 |[M:1/4] [FA]>[GB] | %6
[M:4/4] [Ac]2 [CFA]4 [B,EG]>[DFA] | [DGB]2 [B,DG]4 [EGB]>[EGB] | [EG^c]3 [EGc] [DGB]2 [EGc]2 | %9
[M:3/4] [DFd]6 |[M:1/4] [DGB]>[DAc] |[M:4/4] [DBd]2 [DGB]2- [DGB][DGB][^CG_B][DG=B] | %12
 [DFd]2 [CFA]4 [DFB]>[CFA] |[M:2/4] [B,EG]2 [B,EG]2 | [DFA]2 [DFA]2 |[M:3/4] [DGB]6 | %16
[M:1/4] [DGB]>[EGc] |[M:4/4] [DFB]2 [CFA]2- [CFA][CFA] [CFA]>[DFB] | [CFA]2 G4 G>G | G2 E2 F2 G2 | %20
[M:3/4] [DFA]6 |[M:1/4] [DGB]>[DAc] |[M:4/4] [DBd]2 [DGB]2- [DGB][DGB][^CG_B][DG=B] | %23
 [DFd]2 [CFA]4 [DFB]>[CFA] |[M:2/4] [B,EG]2 [B,EG]2 | [A,EA]2 [EA]2 |[M:4/4] [^DB]6 [Dc]>[DB] | %27
 B2 z2 ^C2 [CB]>[CA] | A2 z2 B,2 [B,D]>[B,^D] | [CE]2 [Cc]2 [DB]2 [CA]2 |[M:3/4] [B,G]6 |] %31
V:2
 z4 z2 [G,B,]>[G,B,] | [G,B,D]2 [G,B,D]4 [G,B,]>[K:treble][G,CG] | [G,DG]2 [G,DG]4 [G,DG]>[A,DG] | %3
 [B,DG]3 [B,DG] [A,DF]2 [G,DG]2 |[M:3/4][K:bass] [D,D]6 |[M:1/4] [D,D]>[D,D] | %6
[M:4/4] [D,D]2 D,4 E,>D, | G,2 G,4 E,>E, | A,3 A, A,2 A,2 |[M:3/4] D,6 |[M:1/4] G,>G, | %11
[M:4/4] G,2 G,2- G,G,G,G, | D,2 D,4 D,>D, |[M:2/4] E,2 E,2 | D,2 D,2 |[M:3/4] G,6 |[M:1/4] G,>G, | %17
[M:4/4] D,2 D,2- D,D, D,>D, | E,2 [E,B,E]4 [E,B,E]>[E,B,E] | [A,^CE]2 [A,C]2 [A,CE]2 [A,CE]2 | %20
[M:3/4] D,6 |[M:1/4] G,>G, |[M:4/4] G,2 G,2- G,G,G,G, | D,2 D,4 D,>D, |[M:2/4] E,2 E,2 | %25
 C,2 [C,E,]2 |[M:4/4] [B,,F,]6 [B,,A,]>[B,,A,] | [E,^G,D]2 [E,G,D]2 [A,,A,]2 [A,,=G,]>[A,,G,] | %28
 [D,F,C]2 [D,F,C]2 [G,,G,]2 [G,,G,]>[G,,G,] | [C,G,]2 [A,,A,]2 [D,G,]2 [D,F,]2 |[M:3/4] [G,,G,]6 |] %31
V:3
 x8 | x8 | x8 | x8 |[M:3/4] x6 |[M:1/4] x2 |[M:4/4] x8 | x8 | x8 |[M:3/4] x6 |[M:1/4] x2 | %11
[M:4/4] x8 | x8 |[M:2/4] x4 | x4 |[M:3/4] x6 |[M:1/4] x2 |[M:4/4] x8 | x8 | x8 |[M:3/4] x6 | %21
[M:1/4] x2 |[M:4/4] x8 | x8 |[M:2/4] x4 | x4 |[M:4/4] x8 | z2 E4 z2 | z2 D4 z2 | x8 |[M:3/4] x6 |] %31

